X:13406
T:Polska efter Anders Eriksson Moberg, lvros
S:SvL JH 722
A:Hrjedalen (Sweden)
B:Svenska Ltar Jmtland Hrjedalen nr 722
O:efter Anders Eriksson Moberg, lvros
M:3/4
L:1/8
Q:1/4=138
K:Dm
fa/f/ ef/e/ dd|AB/A/ GA/B/ A(F|E)D/^C/ D3 a|{b}ag/f/ ef/g/ af|\
ed/^c/ d4::\
~fc AF GA/B/|cB/A/ GB/G/ A2|~fc AF GA/B/|cB/A/ GB/G/ A(A|\
F)A/F/ GB/G/ AA|FA/F/ GB/G/ Af|ed/^c/ (3def (3efg|a^c d4:|\
T:Andrastmma
df/d/ ^cd/c/ AA|F2 E2 D(F|A)=B/^c/ d3 f|{g}fe/d/ ^cd/e/ fA|\
GF/E/ [F4A4]::\
{A,}[F2A2] D2 EF/G/|AG/F/ EG/E/ F2|A2 F2 EF/G/|AG/F/ EG/E/ F(F|\
D)F/D/ EG/E/ FF|DF/D/ EG/E/ FA|GF/E/ (3DEF (3EFG|AE [F4A4]:|
